!!!OTL: Exultet
!!!SMS: T2: Troia, Archivo Capitolare, <i>Exultet</i> roll 2
!!!EFL: 28/28
**kern	**text
*	*
*staff10	*staff10
!T2	!T2
*clefGv2	*
*k[b-]	*
=1--	=1--
1ryy	.
.	.
.	.
.	.
.	.
.	.
.	.
.	.
=2-	=2-
1ryy	.
.	.
.	.
.	.
.	.
.	.
.	.
.	.
=3-	=3-
1ryy	.
.	.
.	.
.	.
.	.
.	.
.	.
.	.
=4-	=4-
1ryy	.
.	.
.	.
.	.
=5-	=5-
1ryy	.
.	.
.	.
.	.
.	.
.	.
=6-	=6-
1ryy	.
.	.
.	.
.	.
.	.
.	.
=7-	=7-
1ryy	.
.	.
.	.
.	.
.	.
.	.
.	.
.	.
.	.
.	.
=8-	=8-
1ryy	.
.	.
.	.
.	.
.	.
.	.
.	.
.	.
.	.
.	.
.	.
.	.
=9-	=9-
1ryy	.
.	.
.	.
.	.
.	.
.	.
.	.
.	.
.	.
.	.
.	.
.	.
.	.
.	.
=10-	=10-
1ryy	.
.	.
.	.
.	.
.	.
.	.
.	.
.	.
.	.
.	.
.	.
=11-	=11-
1ryy	.
.	.
.	.
.	.
.	.
.	.
.	.
.	.
.	.
=12-	=12-
1ryy	.
.	.
.	.
.	.
.	.
.	.
.	.
.	.
=13-	=13-
1ryy	.
.	.
.	.
.	.
.	.
.	.
.	.
=14-	=14-
1ryy	.
.	.
.	.
.	.
.	.
.	.
.	.
.	.
=15-	=15-
1ryy	.
.	.
.	.
.	.
.	.
.	.
.	.
=16-	=16-
1ryy	.
.	.
.	.
.	.
.	.
.	.
.	.
.	.
.	.
=17-	=17-
1ryy	.
.	.
.	.
.	.
.	.
.	.
.	.
.	.
.	.
.	.
.	.
.	.
.	.
.	.
=18-	=18-
1ryy	.
.	.
.	.
.	.
.	.
.	.
.	.
.	.
.	.
.	.
.	.
.	.
.	.
=19-	=19-
1ryy	.
.	.
.	.
.	.
.	.
.	.
.	.
.	.
.	.
.	.
.	.
.	.
.	.
=20-	=20-
1ryy	.
.	.
.	.
.	.
.	.
.	.
.	.
.	.
.	.
.	.
.	.
=21-	=21-
1ryy	.
.	.
.	.
.	.
.	.
.	.
.	.
.	.
.	.
.	.
.	.
.	.
.	.
.	.
.	.
.	.
=22-	=22-
1ryy	.
.	.
.	.
.	.
.	.
.	.
.	.
.	.
.	.
.	.
.	.
.	.
=23-	=23-
1ryy	.
.	.
.	.
.	.
.	.
.	.
.	.
.	.
.	.
.	.
.	.
.	.
=24-	=24-
1ryy	.
.	.
.	.
.	.
.	.
.	.
.	.
.	.
.	.
.	.
.	.
.	.
.	.
.	.
.	.
=25-	=25-
1ryy	.
.	.
.	.
.	.
.	.
.	.
.	.
.	.
.	.
=26-	=26-
1ryy	.
.	.
.	.
.	.
.	.
.	.
.	.
.	.
.	.
=27-	=27-
1ryy	.
.	.
.	.
.	.
.	.
.	.
=28-	=28-
1ryy	.
.	.
.	.
.	.
.	.
.	.
=29-	=29-
1ryy	.
.	.
.	.
.	.
.	.
.	.
.	.
.	.
.	.
.	.
.	.
.	.
.	.
.	.
=30-	=30-
1ryy	.
.	.
.	.
.	.
.	.
.	.
.	.
.	.
.	.
.	.
.	.
.	.
=31-	=31-
1ryy	.
.	.
.	.
.	.
.	.
.	.
.	.
.	.
.	.
.	.
.	.
.	.
.	.
.	.
.	.
.	.
=32-	=32-
1ryy	.
.	.
.	.
.	.
.	.
.	.
.	.
.	.
.	.
.	.
.	.
.	.
.	.
.	.
.	.
=33-	=33-
1ryy	.
.	.
.	.
.	.
.	.
.	.
.	.
.	.
.	.
.	.
.	.
.	.
.	.
.	.
=34-	=34-
1ryy	.
.	.
.	.
.	.
.	.
.	.
.	.
.	.
.	.
.	.
.	.
.	.
.	.
.	.
.	.
.	.
=35-	=35-
1ryy	.
.	.
.	.
.	.
.	.
.	.
.	.
.	.
.	.
.	.
.	.
.	.
.	.
.	.
.	.
.	.
=36-	=36-
1ryy	.
.	.
.	.
.	.
.	.
.	.
.	.
.	.
.	.
.	.
.	.
.	.
.	.
.	.
.	.
.	.
=37-	=37-
1ryy	.
.	.
.	.
.	.
.	.
.	.
.	.
.	.
=38-	=38-
1ryy	.
.	.
.	.
.	.
.	.
.	.
.	.
=39-	=39-
1ryy	.
.	.
.	.
.	.
.	.
.	.
.	.
.	.
=40-	=40-
1ryy	.
.	.
.	.
.	.
.	.
.	.
.	.
=41-	=41-
1ryy	.
.	.
.	.
.	.
.	.
.	.
.	.
.	.
.	.
.	.
.	.
.	.
.	.
.	.
.	.
=42-	=42-
1ryy	.
.	.
.	.
.	.
.	.
.	.
.	.
.	.
.	.
.	.
.	.
.	.
.	.
.	.
.	.
.	.
=43-	=43-
1ryy	.
.	.
.	.
.	.
.	.
.	.
.	.
.	.
.	.
=44-	=44-
1ryy	.
.	.
.	.
.	.
.	.
.	.
.	.
.	.
=45-	=45-
1ryy	.
.	.
.	.
.	.
.	.
.	.
.	.
.	.
=46-	=46-
1ryy	.
.	.
.	.
.	.
.	.
.	.
.	.
.	.
.	.
.	.
=47-	=47-
1ryy	.
.	.
.	.
.	.
.	.
.	.
.	.
.	.
.	.
.	.
.	.
.	.
.	.
.	.
.	.
.	.
=48-	=48-
1ryy	.
.	.
.	.
.	.
.	.
.	.
.	.
.	.
.	.
.	.
.	.
.	.
.	.
.	.
.	.
.	.
=49-	=49-
1ryy	.
.	.
.	.
.	.
.	.
.	.
.	.
.	.
.	.
.	.
=50-	=50-
1ryy	.
.	.
.	.
.	.
.	.
.	.
.	.
.	.
.	.
.	.
.	.
.	.
=51-	=51-
1ryy	.
.	.
.	.
.	.
.	.
.	.
.	.
.	.
=52-	=52-
1ryy	.
.	.
.	.
.	.
.	.
.	.
.	.
.	.
.	.
.	.
.	.
=53-	=53-
1ryy	.
.	.
.	.
.	.
.	.
.	.
.	.
.	.
.	.
.	.
.	.
=54-	=54-
1ryy	.
.	.
.	.
.	.
.	.
.	.
.	.
.	.
=55-	=55-
1ryy	.
.	.
.	.
.	.
.	.
.	.
.	.
.	.
.	.
.	.
.	.
.	.
.	.
.	.
=56-	=56-
1ryy	.
.	.
.	.
.	.
.	.
.	.
.	.
.	.
.	.
.	.
.	.
.	.
.	.
.	.
.	.
.	.
=57-	=57-
1ryy	.
.	.
.	.
.	.
.	.
.	.
.	.
.	.
=58-	=58-
1ryy	.
.	.
.	.
.	.
.	.
.	.
.	.
.	.
.	.
.	.
.	.
.	.
.	.
.	.
.	.
.	.
=59-	=59-
1ryy	.
.	.
.	.
.	.
.	.
.	.
.	.
.	.
.	.
.	.
.	.
.	.
.	.
.	.
.	.
.	.
.	.
.	.
.	.
.	.
.	.
=60-	=60-
1ryy	.
.	.
.	.
.	.
.	.
.	.
.	.
.	.
.	.
.	.
.	.
.	.
.	.
.	.
.	.
.	.
=61-	=61-
1ryy	.
.	.
.	.
.	.
.	.
.	.
.	.
.	.
.	.
.	.
.	.
.	.
.	.
.	.
=62-	=62-
1ryy	.
.	.
.	.
.	.
.	.
.	.
.	.
.	.
.	.
.	.
.	.
.	.
.	.
.	.
.	.
=63-	=63-
1ryy	.
.	.
.	.
.	.
.	.
.	.
.	.
.	.
.	.
.	.
.	.
=64-	=64-
1ryy	.
.	.
.	.
.	.
.	.
.	.
.	.
.	.
.	.
.	.
.	.
.	.
=65-	=65-
1ryy	.
.	.
.	.
.	.
.	.
.	.
.	.
.	.
.	.
.	.
.	.
.	.
=66-	=66-
1ryy	.
.	.
.	.
.	.
.	.
.	.
.	.
.	.
.	.
.	.
.	.
.	.
.	.
=67-	=67-
1ryy	.
.	.
.	.
.	.
.	.
.	.
.	.
.	.
.	.
.	.
.	.
.	.
.	.
.	.
.	.
.	.
=68-	=68-
1ryy	.
.	.
.	.
.	.
.	.
.	.
.	.
.	.
.	.
.	.
.	.
.	.
.	.
.	.
.	.
.	.
=69-	=69-
1ryy	.
.	.
.	.
.	.
.	.
.	.
.	.
.	.
.	.
.	.
.	.
.	.
=70-	=70-
1ryy	.
.	.
.	.
.	.
.	.
.	.
.	.
.	.
.	.
.	.
.	.
=71-	=71-
1ryy	.
.	.
.	.
.	.
.	.
.	.
.	.
.	.
=72-	=72-
1ryy	.
.	.
.	.
.	.
.	.
.	.
.	.
=73-	=73-
1ryy	.
.	.
.	.
.	.
.	.
.	.
.	.
.	.
.	.
=74-	=74-
1ryy	.
.	.
.	.
.	.
.	.
.	.
.	.
.	.
.	.
.	.
.	.
=75-	=75-
1ryy	.
.	.
.	.
.	.
.	.
.	.
.	.
.	.
=76-	=76-
1ryy	.
.	.
.	.
.	.
.	.
.	.
.	.
.	.
.	.
.	.
.	.
.	.
=77-	=77-
1ryy	.
.	.
.	.
.	.
.	.
.	.
.	.
.	.
=78-	=78-
1ryy	.
.	.
.	.
.	.
.	.
.	.
.	.
.	.
=79-	=79-
1ryy	.
.	.
.	.
.	.
.	.
.	.
.	.
.	.
=80-	=80-
1ryy	.
.	.
.	.
.	.
.	.
.	.
.	.
.	.
.	.
.	.
.	.
.	.
.	.
.	.
.	.
.	.
=81-	=81-
1ryy	.
.	.
.	.
.	.
.	.
.	.
.	.
.	.
.	.
.	.
.	.
.	.
.	.
.	.
.	.
.	.
=82-	=82-
1ryy	.
.	.
.	.
.	.
.	.
.	.
.	.
.	.
.	.
=83-	=83-
1ryy	.
.	.
.	.
.	.
.	.
.	.
.	.
.	.
.	.
.	.
.	.
.	.
.	.
=84-	=84-
1ryy	.
.	.
.	.
.	.
.	.
.	.
.	.
.	.
.	.
.	.
.	.
=85-	=85-
1ryy	.
.	.
.	.
.	.
.	.
=86-	=86-
1ryy	.
.	.
.	.
.	.
.	.
.	.
.	.
.	.
=87-	=87-
1ryy	.
.	.
.	.
.	.
.	.
.	.
.	.
.	.
=88-	=88-
1ryy	.
.	.
.	.
.	.
.	.
.	.
.	.
.	.
.	.
=89-	=89-
1ryy	.
.	.
.	.
.	.
.	.
.	.
.	.
.	.
.	.
.	.
.	.
=90-	=90-
1ryy	.
.	.
.	.
.	.
.	.
.	.
.	.
.	.
=91-	=91-
1ryy	.
.	.
.	.
.	.
.	.
.	.
.	.
.	.
.	.
.	.
.	.
.	.
.	.
.	.
.	.
.	.
.	.
.	.
.	.
=92-	=92-
1ryy	.
.	.
.	.
.	.
.	.
.	.
.	.
.	.
.	.
.	.
.	.
.	.
.	.
.	.
.	.
.	.
=93-	=93-
1ryy	.
.	.
.	.
.	.
.	.
.	.
.	.
.	.
.	.
.	.
.	.
.	.
.	.
.	.
.	.
.	.
.	.
.	.
.	.
.	.
.	.
.	.
.	.
.	.
.	.
.	.
.	.
.	.
.	.
.	.
.	.
=94-	=94-
1ryy	.
.	.
.	.
.	.
.	.
.	.
.	.
.	.
.	.
.	.
.	.
.	.
.	.
.	.
.	.
.	.
=95-	=95-
1ryy	.
.	.
.	.
.	.
.	.
.	.
.	.
.	.
.	.
.	.
.	.
.	.
.	.
.	.
=96-	=96-
1ryy	.
.	.
.	.
.	.
.	.
.	.
.	.
.	.
.	.
=97-	=97-
1ryy	.
.	.
.	.
.	.
.	.
.	.
.	.
.	.
.	.
.	.
.	.
.	.
=98-	=98-
1ryy	.
.	.
.	.
.	.
.	.
.	.
.	.
.	.
.	.
.	.
.	.
.	.
=99-	=99-
1ryy	.
.	.
.	.
.	.
.	.
.	.
.	.
.	.
.	.
.	.
.	.
.	.
.	.
=100-	=100-
1ryy	.
.	.
.	.
.	.
.	.
.	.
.	.
.	.
.	.
.	.
=101-	=101-
1ryy	.
.	.
.	.
.	.
.	.
.	.
.	.
.	.
.	.
.	.
.	.
.	.
.	.
.	.
=102-	=102-
1ryy	.
.	.
.	.
.	.
.	.
.	.
.	.
.	.
.	.
.	.
.	.
.	.
=103-	=103-
1ryy	.
.	.
.	.
.	.
.	.
.	.
.	.
.	.
.	.
.	.
.	.
.	.
.	.
.	.
.	.
.	.
=104-	=104-
1ryy	.
.	.
.	.
.	.
.	.
.	.
.	.
.	.
.	.
.	.
.	.
.	.
.	.
.	.
=105-	=105-
1ryy	.
.	.
.	.
.	.
.	.
.	.
.	.
.	.
.	.
.	.
.	.
.	.
.	.
.	.
=106-	=106-
1ryy	.
.	.
.	.
.	.
.	.
.	.
.	.
.	.
.	.
.	.
=107-	=107-
1ryy	.
.	.
.	.
.	.
.	.
.	.
.	.
.	.
.	.
.	.
.	.
=108-	=108-
1ryy	.
.	.
.	.
.	.
.	.
.	.
.	.
.	.
.	.
.	.
.	.
.	.
.	.
.	.
=109-	=109-
(8G	(A-
.	.
8B-)	.
.	.
4A	-pes
.	.
(8G	si-
8A)	.
4A	qui
.	.
=110-	=110-
4B-	-dem
.	.
4A	dum
.	.
(8A	o-
.	.
8B-)	.
.	.
(8B-	-ryye
.	.
8A)	.
.	.
=111-	=111-
4G	con-
.	.
.	.
.	.
(8A	ci
.	.
8B-)	.
.	.
(8A	pi
.	.
8G)	.
.	.
4G	-unt)
.	.
.	.
.	.
=112-	=112-
(8A	o-
.	.
8B-)	.
.	.
(8B-	-ryye
8A)	.
.	.
4G	paryy-
.	.
.	.
.	.
(8A	(tu
.	.
8B-)	.
.	.
=113-	=113-
(8A	ryyi
8G)	.
4G	-unt
.	.
4B-	ca-
.	.
4A	-sto)
.	.
=114-	=114-
(8A	coryy-
4B-)	.
.	.
(8A	po
4G)	.
.	.
4G	-ryye
.	.
=115-	=115-
8G	(non)
8A	fe-
4G	-do
8G	de-
8G	(si
4G	de
.	.
=116-	=116-
8G	ryyi
(8A	-o)
8B-	.
.	.
8A	.
.	.
8B-)	.
8A	.
8G	.
8F	.
=117-	=117-
(8G	co-
.	.
8A	.
8B-)	.
(8A	pu
8B-	.
.	.
8A)	.
8G	lan
8G	-turyy
=118-	=118-
(8G	De-
8B-)	.
4A	ni
4A	-que
.	.
4A	viryy-
.	.
=119-	=119-
4A	gi
4A	ni
.	.
(8A	(ta
8B-)	.
(8B-	-tem)
8A)	.
=120-	=120-
4G	seryy-
.	.
(8A	van
8B-	.
4A)	.
.	.
4G	-tes
.	.
=121-	=121-
8G	Po-
8G	ste
4G	ryyi
.	.
8B-	ta
8A	-tem
(8G	ge-
8A)	.
=122-	=122-
4A	ne
.	.
4A	-ryyant.
.	.
(8A	so-
8B-)	.
(8B-	bo
8A)	.
=123-	=123-
4G	-le
.	.
(8A	gau-
8B-	.
4A)	.
.	.
4G	-dent.
.	.
=124-	=124-
(8A	(Ma-
.	.
8B-)	.
(8c	-tryyes)
8A	.
.	.
8B-	.
8A)	.
4G	di-
.	.
=125-	=125-
(16A	cun
16B-	.
8A)	.
.	.
8G	-turyy.
8A	in-
.	.
(8A	tac
.	.
8B-)	.
(8B-	-t(a)
.	.
8A)	.
.	.
=126-	=126-
4G	peryy-
.	.
.	.
.	.
(8A	du
.	.
8B-	.
.	.
4A)	.
.	.
.	.
.	.
4G	-ryyant.
.	.
.	.
.	.
=127-	=127-
(8A	fi-
.	.
8B-)	.
.	.
(8B-	li
.	.
8A)	.
4G	-os
.	.
.	.
(8A	ge-
.	.
8B-)	.
=128-	=128-
(8A	ne
8G)	.
8G	-ryyant.
8G	et
(16A	vi-
16B-	.
16A	.
16B-)	.
16A	.
16G	.
8F	.
.	.
=129-	=129-
(16G	.
16A	.
16B-)	-ryyos
(8A	non
.	.
8B-	.
.	.
8A)	.
.	.
4G	no-
.	.
.	.
8G	-ryyunt.
.	.
16ryy	.
=130-	=130-
(8G	Flo-
8B-)	.
.	.
8A	-ryye
.	.
(8A	(u-
.	.
8B-)	.
.	.
(16c	tun
16A	.
16B-	.
16A)	.
8G	-turyy)
.	.
=131-	=131-
(8A	co-
8B-)	.
(16A	niu
8G)	.
.	.
8G	-ge.
.	.
8B-	flo-
.	.
8A	-ryye
.	.
(16A	fun-
8B-)	.
.	.
=132-	=132-
(16B-	gun
16A)	.
8G	-turyy
.	.
(8A	ge-
8B-)	.
(8A	ne
8G)	.
4G	-ryye.
.	.
=133-	=133-
8B-	flo-
4A	-ryye
.	.
(8B-	do-
8A)	.
8G	-mos
(8A	in-
8B-)	.
=134-	=134-
(16A	stryyu
16G)	.
16F	.
8G	-un(t)
.	.
8B-	flo-
.	.
8A	-ryye
.	.
8A	di-
.	.
(16A	vi
8B-)	.
(16c	ti
16A	.
=135-	=135-
8B-	.
8A)	.
.	.
8G	-as
.	.
(8A	con-
8B-)	.
(8A	ve
.	.
8G)	.
8G	-unt
=136-	=136-
4A	flo-
.	.
.	.
.	.
4G	-ryye
.	.
.	.
.	.
(8A	ce-
.	.
8B-	.
.	.
8A	.
.	.
8B-)	.
.	.
=137-	=137-
8A	.
.	.
8G	.
16F	.
(8G	-ryyam
.	.
8A	.
.	.
8B-)	.
.	.
(8A	con-
.	.
8B-	.
.	.
16ryy	.
=138-	=138-
4A)	.
.	.
.	.
4G	fi
.	.
.	.
(8F	ci
8G)	.
4G	-unt.
.	.
=139-	=139-
(8G	O
8B-)	.
.	.
4A	am-
.	.
.	.
4G	mi
.	.
.	.
4A	ryyan
.	.
=140-	=140-
(8A	-dus
4B-)	.
.	.
(8B-	a-
4A)	.
.	.
.	.
.	.
4G	-pum
.	.
.	.
.	.
=141-	=141-
(4A	feryy-
.	.
4B-	.
.	.
4A)	.
.	.
4G	-voryy
.	.
=142-	=142-
8G	ad
.	.
4G	com-
.	.
.	.
8B-	mu
4A	-ne
.	.
.	.
(8G	o-
.	.
8A)	.
.	.
=143-	=143-
8A	-pus
8A	pa-
8A	ci
8A	fi
.	.
8A	-ca
.	.
(16A	turyy-
16B-)	.
(16c	-ba
16A	.
16B-	.
16A)	.
=144-	=144-
4G	con-
.	.
.	.
.	.
(8A	curyy
.	.
8B-	.
4A)	.
.	.
.	.
.	.
4G	-(ryyit)
.	.
=145-	=145-
8G	et
8G	o-
8G	pe
8B-	ryyan
8A	ti
8G	-bus
(16G	plu-
8A)	.
.	.
16A	ryyi
=146-	=146-
8A	-mis
8A	u-
8A	-na
8G	au-
(16A	ge
16B-	.
16A	.
16B-	.
16A	.
16G	.
8F)	.
.	.
=147-	=147-
(16G	-turyy
16A	.
8B-)	.
(16A	sub-
16B-	.
8A)	.
8G	stan
(8F	ti
.	.
8G)	.
.	.
8G	-a.
.	.
=148-	=148-
(8G	O
.	.
4B-)	.
.	.
.	.
.	.
8A	in-
.	.
8G	vi
.	.
(8G	si
.	.
8A)	.
.	.
8A	bi
.	.
=149-	=149-
(8A	-le
.	.
8B-)	.
(4B-	aryy-
.	.
8A)	.
8G	ti
.	.
4ryy	.
.	.
.	.
=150-	=150-
(8A	fi
.	.
4B-)	.
.	.
.	.
.	.
(8A	ci
.	.
4G)	.
.	.
.	.
.	.
4G	-um.
.	.
.	.
=151-	=151-
4B-	pryyi-
.	.
.	.
4A	-mo
.	.
(8G	cul-
8A)	.
8A	mi
.	.
8A	-na
.	.
=152-	=152-
8A	pryyo
.	.
8A	fun-
4A	da
.	.
(8A	men
.	.
8B-)	.
.	.
(8B-	-tis
.	.
8A)	.
.	.
=153-	=153-
4G	e-
.	.
.	.
(8A	di
.	.
8B-)	.
(8A	fi
8G)	.
4G	-cant.
.	.
=154-	=154-
8G	et
8G	tam
8G	pon-
8G	de
8B-	ryyo
8A	-sam
8A	mel-
8G	-lis
=155-	=155-
(16G	saryy-
8A)	.
.	.
8A	ci
.	.
8A	-nam
.	.
8A	pen-
.	.
8A	den
.	.
8A	ti
.	.
(16A	-bus
16B-)	.
16ryy	.
=156-	=156-
(16c	do-
16A	.
16B-	.
16A)	.
16G	mi
(8A	ci
.	.
8B-)	.
.	.
(8A	li
.	.
8G)	.
.	.
16G	-is.
8ryy	.
=157-	=157-
4G	im-
.	.
.	.
4A	po
.	.
.	.
4G	ne
.	.
(8A	-ryye
8B-	.
.	.
=158-	=158-
8A	.
8B-)	.
8A	.
8G	.
4F	.
.	.
4B-	non
.	.
=159-	=159-
(8A	ve-
8B-	.
4A)	.
.	.
4G	ryyen
4G	-turyy.
=160-	=160-
(16G	O
8B-)	.
.	.
4A	viryy-
.	.
.	.
4A	gi
.	.
.	.
4A	ni
.	.
.	.
.	.
16ryy	.
=161-	=161-
(8A	ta
.	.
8B-)	.
.	.
(8c	-tis
.	.
8A	.
8B-	.
.	.
8A)	.
.	.
4G	in-
.	.
=162-	=162-
(8A	si
.	.
4B-)	.
.	.
.	.
(8A	gni
4G)	.
.	.
4G	-a.
.	.
=163-	=163-
8G	que
8G	non
8G	pos-
8G	ses
8B-	so
8A	-ryyis
(16G	(dam)-
16A)	.
8G	-na
=164-	=164-
4A	si-
.	.
8A	-bi
(8A	lu-
8B-)	.
(8B-	-cryya
8A)	.
8ryy	.
.	.
=165-	=165-
4G	con-
.	.
(8A	nec
8B-	.
4A)	.
.	.
4G	-tant
=166-	=166-
8A	au-
8A	fe
(16A	-ryyunt
8B-)	.
.	.
(16B-	qui-
8A)	.
.	.
8G	-dem
(16A	pryye-
16B-	.
8A)	.
=167-	=167-
8G	-dam.
8G	et
8G	cum
8A	pryye-
8G	-da
8A	mi-
8G	ni
8G	-m(e)
=168-	=168-
(16A	to-
16B-	.
16A	.
16B-)	.
16A	.
16G	.
16F	.
(16G	-lunt
16A	.
16B-)	.
(16A	pec-
16B-	.
16A)	.
8G	ca
.	.
16G	-tum.
=169-	=169-
(16G	Spo-
16A	.
16B-)	.
8A	li
.	.
8A	-ant
.	.
8A	qui-
.	.
(16A	-dem
16B-)	.
(16B-	flo-
16A)	.
8G	-ryyum
.	.
16ryy	.
=170-	=170-
(16A	cu-
16B-	.
16A)	.
8G	-tem.
.	.
8G	et
.	.
8A	moryy-
.	.
8G	-suum
.	.
8G	non
.	.
8A	an-
.	.
16G	no
=171-	=171-
(16A	-tant
16B-	.
16A	.
16B-)	.
16A	.
16G	.
16F	.
(16G	ci-
16A	.
16B-)	.
(16A	ca
16B-	.
16A)	.
16G	tryyi
16G	-cem.
16ryy	.
=172-	=172-
(8G	Sed
.	.
8B-)	.
4A	in-
.	.
.	.
.	.
4A	-teryy
.	.
.	.
4A	hec
.	.
.	.
.	.
=173-	=173-
4A	que
.	.
(8A	di-
.	.
8B-)	.
.	.
(8B-	nu
.	.
8A)	.
.	.
4G	me
.	.
.	.
.	.
=174-	=174-
(8A	ryya
.	.
4B-)	.
.	.
.	.
(8A	vi
4G)	.
.	.
.	.
4G	-mus.
.	.
=175-	=175-
8G	hu-
4G	-ius
.	.
4A	ce-
.	.
8G	ryye
.	.
4G	-i
.	.
.	.
.	.
=176-	=176-
4A	gryya-
.	.
4G	ti
.	.
.	.
(16A	-am
16B-	.
16A	.
16B-)	.
16A	.
16G	.
8F	.
.	.
=177-	=177-
(16G	pryye-
16A	.
8B-)	.
.	.
(16A	di
16B-	.
8A)	.
4G	ce
.	.
.	.
4G	-mus.
.	.
.	.
.	.
=178-	=178-
(8G	Cu-
8B-)	.
4A	-ius
.	.
.	.
.	.
4A	o-
.	.
4A	-doryy
.	.
.	.
.	.
=179-	=179-
8G	su-
(8G	a
8A)	.
8A	-vis
8A	est
(16A	(et)
8B-)	.
.	.
(16B-	flam-
8A)	.
.	.
=180-	=180-
4G	-ma
.	.
.	.
.	.
(8A	y-
.	.
8B-)	.
.	.
(8A	la
8G)	.
4G	-ryyis.
.	.
=181-	=181-
8G	Non
.	.
4B-	te-
.	.
.	.
.	.
8A	-tryyo
.	.
4G	o-
.	.
.	.
.	.
(8G	do
.	.
8A)	.
=182-	=182-
8A	-ryye
8G	aryy-
(8A	vi
.	.
8B-)	.
.	.
(8c	-na
8A	.
8B-	.
8A)	.
=183-	=183-
4G	de-
.	.
(8A	su
8B-	.
4A)	.
.	.
4G	-dat.
=184-	=184-
4G	Sed
.	.
4G	io-
.	.
4G	cun
.	.
.	.
.	.
4B-	dis
.	.
.	.
=185-	=185-
4A	si
.	.
.	.
.	.
4A	-ma
.	.
.	.
.	.
.	.
.	.
.	.
(8A	su-
.	.
.	.
.	.
8B-)	.
.	.
.	.
(8B-	a
.	.
.	.
.	.
8A)	.
.	.
.	.
.	.
=186-	=186-
4G	vi
.	.
.	.
.	.
.	.
.	.
(8A	ta
.	.
.	.
8B-	.
.	.
.	.
4A)	.
.	.
.	.
.	.
4G	-te
.	.
.	.
.	.
.	.
.	.
.	.
=187-	=187-
4G	qui
.	.
4G	pe-
.	.
4G	ryye
.	.
(8A	gryyi
8B-)	.
=188-	=188-
8A	-nis
4A	non
.	.
8A	in-
8A	fi
(8A	ci
8B-)	.
8ryy	.
=189-	=189-
(8B-	-turyy
8A)	.
8A	.
8G	pig-
(8A	men
8B-	.
.	.
8A)	.
8G	-tis
=190-	=190-
4G	sed
.	.
4G	il-
.	.
4G	lu
.	.
4G	mi
.	.
=191-	=191-
4A	na
.	.
4G	-turyy
.	.
.	.
.	.
(16A	spi-
16B-	.
16A	.
16B-	.
16A	.
16G	.
8F)	.
.	.
=192-	=192-
(8G	ryyi
.	.
8A	.
.	.
8B-)	.
.	.
(8A	-(tu)
.	.
8B-	.
.	.
8A)	.
.	.
8G	sanc-
8G	-to.
.	.
=193-	=193-
(8G	Qui
.	.
8B-)	.
.	.
4A	ut
.	.
8A	ac-
8A	cen
4A	-sus
.	.
=194-	=194-
8A	pryyo-
8A	pryyi
8G	-as
(8G	coryy-
8A)	.
8A	po
8A	-ryyis
8A	com-
=195-	=195-
(8A	pa
8B-)	.
(16c	-ges
16A	.
16B-	.
16A)	.
8G	(de-
(16A	pa)
16B-	.
8A)	.
8G	-scit
=196-	=196-
(16G	i-
16B-)	.
8A	-ta
.	.
8A	co-
.	.
8A	a
.	.
8A	gu
.	.
8A	la
.	.
8G	-tas
.	.
(16G	la-
16A)	.
=197-	=197-
8A	cryyi
.	.
8A	-mas
.	.
8A	in
.	.
(16G	ryyi-
16A)	.
16A	vu
8G	-los
.	.
(16A	fun-
16B-	.
16A	.
16B-)	.
16ryy	.
=198-	=198-
16A	.
16G	.
8F	.
.	.
(16G	-dit
16A	.
8B-)	.
.	.
(16A	gut-
16B-	.
8A)	.
.	.
8G	ta
8G	-ryyum.
.	.
=199-	=199-
(16G	Qui
16B-)	.
8A	cum
8A	se-
8A	mi
8A	u
8G	-sta
(16G	mem-
16A)	.
8A	-bryya
=200-	=200-
8A	am-
(16A	bryyo
16B-)	.
(16c	se
16A	.
16B-	.
16A)	.
8G	-o
.	.
(16A	san-
16B-)	.
(16A	gui
16G)	.
8G	-ne
=201-	=201-
8B-	flam-
8A	me
8A	-a
.	.
(16A	ve-
16B-)	.
(16B-	-na
16A)	.
8G	di-
.	.
(16A	(stol
16B-	.
16A)	.
16G	-lit)
=202-	=202-
4A	a-
.	.
(16A	vi
16B-)	.
(16A	-dus
16G)	.
8A	bi-
4G	-bit
.	.
8ryy	.
=203-	=203-
(16A	ig-
8B-	.
.	.
16A	.
8B-)	.
16A	.
8G	.
.	.
8F	.
.	.
(16G	-nis
8A	.
8B-)	.
=204-	=204-
(8A	hu-
8B-	.
4A)	.
.	.
4G	mo
.	.
4G	-ryyem.
.	.
=205-	=205-
(16G	In
16B-)	.
8A	hu-
8A	-ius
8A	au-
8G	-tem
(16G	ce-
16A)	.
8A	ryye
8A	-i
=206-	=206-
(16A	lu-
16B-)	.
(16B-	mi
16A)	.
8G	-nis
(16A	(coryy-
16B-)	.
16A	po
8G	-ryye
.	.
16B-	te
8A	om-
(16G	ni
16A)	.
=207-	=207-
8A	po
(16A	-tens)
8B-)	.
.	.
(16B-	po-
8A)	.
.	.
8G	stu
(16A	la
16B-	.
8A)	.
8G	-mus.
=208-	=208-
8G	ut
8G	su-
8B-	peryy
8A	-ne
8A	(be-
8A	ne
8A	dic)
8A	ti
=209-	=209-
8A	o
8G	-nis
(16A	(mu-
16B-	.
16A	.
16B-)	.
16A	.
16G	.
8F	.
(16G	-nus
16A	.
16B-	.
16A)	.
=210-	=210-
(8A	ac-
8B-	.
8A)	.
8G	com
(8F	mo
8G)	.
4G	-des)
.	.
=211-	=211-
(16G	Ut
16B-)	.
8A	si
8A	quis
8G	hinc
(8G	sump-
8A)	.
8A	(se
8A	-ryyit
=212-	=212-
8A	ad-
4A	veryy
.	.
8A	-sus
.	.
(8A	fla-
.	.
8B-)	.
.	.
(8B-	-bryya
.	.
8A)	.
.	.
=213-	=213-
4G	ven-
.	.
(8A	to
.	.
8B-	.
4A)	.
.	.
4G	-ryyum)
.	.
=214-	=214-
8G	ad
8B-	veryy-
8A	-sus
8A	spi-
.	.
8A	ryyi
(16A	-tum
16B-)	.
(16c	pryyo-
16A	.
16B-	.
16A)	.
=215-	=215-
8G	(cel
.	.
(16A	la
16B-	.
16A)	.
8G	-ryyum)
.	.
8B-	sit
.	.
8A	e-
.	.
8G	-i
.	.
(16G	(do-
16A)	.
16A	mi
=216-	=216-
8A	-ne
8A	sin-
8A	gu
(16A	la
16B-)	.
(16B-	-ryye
16A)	.
16G	peryy-
(16A	fu)
16B-)	.
(16A	gi
16G)	.
16G	-um.
=217-	=217-
4G	Sit
.	.
4A	mu-
.	.
4G	-ryyus
.	.
4G	ab
.	.
=218-	=218-
(8A	ho-
8B-	.
16A	.
8B-)	.
.	.
8A	.
.	.
8G	.
.	.
8F	.
.	.
(16G	-ste
16A	.
16B-)	.
=219-	=219-
(8A	(fi-
8B-	.
8A)	.
4G	de
.	.
.	.
(8F	li
.	.
8G)	.
8G	-bus)
.	.
=220-	=220-
(16G	Sal-
16B-)	.
8A	-vum
8A	fac
8A	po-
8A	pu
8A	-l(um
.	.
8A	tu)-
.	.
8G	-um
.	.
=221-	=221-
(16G	(do-
16A)	.
8A	mi
8A	-ne
.	.
8A	et
(16G	be-
16A)	.
8A	ne
8A	-dic
.	.
8A	heryye-
.	.
=222-	=222-
(8A	di
.	.
8B-)	.
.	.
(16B-	ta)
16A)	.
8G	-tem
(8A	tu-
.	.
8B-	.
.	.
8A)	.
.	.
8G	-am
=223-	=223-
8G	ut
.	.
8B-	ryye-
8A	de
(16G	un
16A)	.
8A	-tes
8A	ad
8A	fe-
8A	sti
=224-	=224-
(16A	(vi
8B-)	.
.	.
(16B-	ta
8A)	.
8G	-tem
(8A	pa-
.	.
8B-	.
.	.
8A)	.
.	.
8G	-sche.
.	.
=225-	=225-
4G	peryy
.	.
4G	hec)
.	.
.	.
4B-	vi-
.	.
.	.
4A	si
.	.
.	.
=226-	=226-
(8G	bi
.	.
8A)	.
.	.
8A	li
.	.
8A	-bus
.	.
8A	et
.	.
8A	in-
.	.
8A	vi
.	.
8G	si
.	.
=227-	=227-
(16G	bi
8A)	.
.	.
8A	li
.	.
(16A	-bus.
8B-)	.
(8c	I-
8A	.
8B-	.
8A)	.
=228-	=228-
4G	nhi
.	.
(8A	an
8B-	.
4A)	.
.	.
.	.
4G	-tes
.	.
=229-	=229-
4G	du(m
4G	pryye-
4B-	sen
.	.
4A	ti
=230-	=230-
4A	-um
.	.
(8A	u-
4B-)	.
.	.
(8B-	su)
4A)	.
.	.
=231-	=231-
4G	fryyu
.	.
(8A	un
8B-	.
4A)	.
.	.
4G	-turyy.
=232-	=232-
8G	fu-
8G	tu
8A	ryyo
8G	-ryyum
8G	de-
8G	si
8A	de
8G	ryyi
=233-	=233-
(8A	-o
8B-	.
8A	.
8B-)	.
8A	.
8G	.
8F	.
(8G	ac-
=234-	=234-
8A	.
8B-)	.
(8A	cen
8B-	.
8A)	.
4G	dan
.	.
8G	-turyy.
=235-	=235-
(8G	U-
8B-)	.
4A	-na
.	.
8A	cum
4A	be-
.	.
8G	a
=236-	=236-
(8G	tis
8A)	.
8A	si
(16A	-mo
16B-)	.
(8c	pa-
.	.
8A	.
.	.
8B-	.
.	.
8A)	.
.	.
=237-	=237-
8G	-pa
(8A	no-
8B-	.
4A)	.
.	.
4G	-stryyo.
.	.
8ryy	ill.
=238-	=238-
4G	Et
.	.
4G	an-
.	.
4A	ti
.	.
4G	sti
.	.
=239-	=239-
4G	-te
.	.
(8A	no-
8B-	.
8A	.
8B-)	.
8A	.
8G	.
=240-	=240-
8F	.
(8G	-stryyo.
8A	.
8B-)	.
(8A	ill.
16B-	.
8A)	.
.	.
8G	.
.	.
16G	.
=241-	=241-
8G	Sed
8G	et
8B-	om-
8A	ni
8A	-bus
8G	pryye-
(16G	sbi
16A)	.
8A	te
=242-	=242-
(16A	-ryyis
8B-)	.
.	.
(16c	di-
16A	.
16B-	.
16A)	.
8G	(a
.	.
(16A	co
8B-)	.
.	.
(16A	ni
16G)	.
8G	-bus).
=243-	=243-
(16A	Sub-
8B-)	.
.	.
(16c	dia
16A	.
16B-	.
16A)	.
(16A	co
8B-)	.
(16A	ni
8G)	.
.	.
16G	-bus.
8ryy	.
=244-	=244-
4G	cunc-
.	.
4A	to
4G	-que
(8A	cle-
8B-	.
=245-	=245-
8A	.
8B-)	.
8A	.
8G	.
8F	.
(8G	-ryyo
8A	.
8B-)	.
=246-	=246-
(8A	vel
8B-	.
4A)	.
.	.
4G	ple-
.	.
.	.
4G	-be.
.	.
=247-	=247-
(16G	Me-
8B-)	.
.	.
8A	mo
.	.
8A	ryya
.	.
8G	-ryye
.	.
(16G	do-
8A)	.
8A	mi
8A	-ne
=248-	=248-
8A	fa-
8A	mu
8G	-lum
(16G	tu-
8A)	.
.	.
(16A	-um
8B-)	.
.	.
(16c	ryye-
16A	.
16B-	.
16A)	.
=249-	=249-
4G	-gem
(8A	no-
8B-	.
4A)	.
.	.
8G	-stryyum.
8ryy	ill.
=250-	=250-
4G	Et
.	.
.	.
4A	e-
.	.
4G	-ius
.	.
4G	(e-
.	.
=251-	=251-
8A	xeryy
8G	ci
(16A	-tum
16B-	.
16A	.
16B-)	.
16A	.
16G	.
8F	.
(16G	u-
16A	.
8B-)	.
=252-	=252-
(8A	ni
8B-	.
4A)	.
.	.
4G	veryy
.	.
4G	-sum.)
=253-	=253-
(16G	Qui
8B-)	.
.	.
8A	vi-
.	.
8A	-vis
.	.
8G	cum
.	.
(16G	(pa-
8A)	.
8A	-tryye
8G	et)
=254-	=254-
8A	spi-
8A	ryyi
8G	-tu
(8G	sanc-
8A)	.
.	.
8A	-to
.	.
(8A	et
.	.
8B-)	.
.	.
=255-	=255-
(16c	ryyeg-
16A	.
16B-	.
8A)	.
.	.
8G	-nas
.	.
(16A	de-
8B-	.
8A)	.
4G	-us.
.	.
=256-	=256-
4G	peryy
.	.
.	.
.	.
4A	om-
.	.
4G	ni
.	.
4G	-a
.	.
.	.
=257-	=257-
8A	se-
8G	cu
(16A	-la
16B-	.
16A	.
16B-)	.
16A	.
16G	.
8F	.
(16G	se-
16A	.
8B-)	.
=258-	=258-
(16A	cu
16B-	.
8A)	.
8G	lo
4G	-ryyum.
.	.
4F	A-
.	.
8G	-MEN
=259-	=259-
1ryy	.
.	.
.	.
.	.
.	.
.	.
.	.
.	.
=260-	=260-
1ryy	.
.	.
.	.
.	.
.	.
.	.
.	.
.	.
=261-	=261-
1ryy	.
.	.
.	.
.	.
.	.
.	.
.	.
.	.
.	.
=262-	=262-
1ryy	.
.	.
.	.
.	.
.	.
.	.
.	.
=263-	=263-
1ryy	.
.	.
.	.
.	.
.	.
.	.
.	.
.	.
.	.
.	.
.	.
.	.
=264-	=264-
1ryy	.
.	.
.	.
.	.
.	.
.	.
.	.
.	.
.	.
.	.
.	.
.	.
.	.
=265-	=265-
1ryy	.
.	.
.	.
.	.
.	.
.	.
.	.
.	.
.	.
.	.
.	.
=266-	=266-
1ryy	.
.	.
.	.
.	.
.	.
.	.
.	.
.	.
.	.
.	.
.	.
.	.
=267-	=267-
1ryy	.
.	.
.	.
.	.
.	.
.	.
.	.
.	.
.	.
.	.
.	.
=268-	=268-
1ryy	.
.	.
.	.
.	.
.	.
.	.
.	.
.	.
=269-	=269-
1ryy	.
.	.
.	.
.	.
.	.
.	.
.	.
.	.
.	.
.	.
.	.
.	.
=270-	=270-
1ryy	.
.	.
.	.
.	.
.	.
.	.
.	.
.	.
.	.
.	.
.	.
.	.
=271-	=271-
1ryy	.
.	.
.	.
.	.
.	.
.	.
.	.
.	.
.	.
.	.
.	.
.	.
.	.
.	.
.	.
.	.
=272-	=272-
1ryy	.
.	.
.	.
.	.
.	.
.	.
.	.
.	.
.	.
.	.
.	.
.	.
.	.
.	.
.	.
.	.
=273-	=273-
1ryy	.
.	.
.	.
.	.
.	.
.	.
.	.
.	.
.	.
.	.
.	.
.	.
.	.
.	.
.	.
.	.
.	.
.	.
.	.
=274-	=274-
1ryy	.
.	.
.	.
.	.
.	.
.	.
.	.
.	.
.	.
.	.
.	.
.	.
.	.
=275-	=275-
1ryy	.
.	.
.	.
.	.
.	.
.	.
.	.
.	.
.	.
.	.
.	.
.	.
.	.
.	.
=276-	=276-
1ryy	.
.	.
.	.
.	.
.	.
.	.
.	.
=277-	=277-
1ryy	.
.	.
.	.
.	.
.	.
.	.
.	.
.	.
.	.
.	.
.	.
.	.
.	.
.	.
.	.
=278-	=278-
1ryy	.
.	.
.	.
.	.
.	.
.	.
.	.
.	.
.	.
.	.
.	.
=279-	=279-
1ryy	.
.	.
.	.
.	.
.	.
.	.
.	.
=280-	=280-
1ryy	.
.	.
.	.
.	.
.	.
.	.
.	.
.	.
=281-	=281-
1ryy	.
.	.
.	.
.	.
.	.
.	.
.	.
.	.
.	.
.	.
=282-	=282-
1ryy	.
.	.
.	.
.	.
.	.
.	.
.	.
.	.
.	.
.	.
.	.
=283-	=283-
1ryy	.
.	.
.	.
.	.
.	.
.	.
.	.
.	.
.	.
=284-	=284-
1ryy	.
.	.
.	.
.	.
.	.
.	.
.	.
.	.
.	.
.	.
.	.
.	.
.	.
.	.
.	.
.	.
=285-	=285-
1ryy	.
.	.
.	.
.	.
.	.
.	.
.	.
.	.
.	.
.	.
.	.
.	.
.	.
.	.
.	.
.	.
=286-	=286-
1ryy	.
.	.
.	.
.	.
.	.
.	.
.	.
.	.
=287-	=287-
1ryy	.
.	.
.	.
.	.
.	.
.	.
.	.
.	.
=288-	=288-
1ryy	.
.	.
.	.
.	.
.	.
.	.
.	.
.	.
=289-	=289-
1ryy	.
.	.
.	.
.	.
.	.
.	.
.	.
.	.
.	.
.	.
=290-	=290-
1ryy	.
.	.
.	.
.	.
.	.
.	.
.	.
.	.
=291-	=291-
1ryy	.
.	.
.	.
.	.
.	.
.	.
.	.
.	.
=292-	=292-
1ryy	.
.	.
.	.
.	.
.	.
.	.
.	.
.	.
.	.
.	.
.	.
.	.
.	.
.	.
.	.
=293-	=293-
1ryy	.
.	.
.	.
.	.
.	.
.	.
.	.
.	.
.	.
.	.
.	.
.	.
=294-	=294-
1ryy	.
.	.
.	.
.	.
.	.
.	.
.	.
=295-	=295-
1ryy	.
.	.
.	.
.	.
.	.
.	.
.	.
.	.
.	.
.	.
.	.
.	.
.	.
.	.
.	.
=296-	=296-
1ryy	.
.	.
.	.
.	.
.	.
.	.
.	.
.	.
.	.
.	.
.	.
.	.
.	.
.	.
=297-	=297-
1ryy	.
.	.
.	.
.	.
.	.
.	.
.	.
=298-	=298-
1ryy	.
.	.
.	.
.	.
.	.
.	.
.	.
.	.
.	.
.	.
.	.
.	.
.	.
.	.
.	.
.	.
=299-	=299-
1ryy	.
.	.
.	.
.	.
.	.
.	.
.	.
.	.
.	.
.	.
.	.
.	.
.	.
.	.
.	.
.	.
=300-	=300-
1ryy	.
.	.
.	.
.	.
.	.
.	.
.	.
.	.
.	.
.	.
.	.
.	.
.	.
.	.
.	.
.	.
=301-	=301-
1ryy	.
.	.
.	.
.	.
=302-	=302-
1ryy	.
.	.
.	.
.	.
.	.
.	.
.	.
=303-	=303-
1ryy	.
.	.
.	.
.	.
.	.
=304-	=304-
1ryy	.
.	.
.	.
.	.
.	.
.	.
.	.
.	.
.	.
.	.
=305-	=305-
1ryy	.
.	.
.	.
.	.
.	.
.	.
.	.
.	.
.	.
.	.
.	.
.	.
.	.
.	.
.	.
=306-	=306-
1ryy	.
.	.
.	.
.	.
.	.
.	.
.	.
.	.
.	.
.	.
.	.
.	.
.	.
.	.
.	.
.	.
=307-	=307-
1ryy	.
.	.
.	.
.	.
.	.
.	.
.	.
.	.
=308-	=308-
1ryy	.
.	.
.	.
.	.
.	.
.	.
.	.
.	.
=309-	=309-
1ryy	.
.	.
.	.
.	.
.	.
.	.
.	.
.	.
.	.
.	.
=310-	=310-
1ryy	.
.	.
.	.
.	.
.	.
.	.
.	.
.	.
=311-	=311-
1ryy	.
.	.
.	.
.	.
.	.
.	.
.	.
.	.
=312-	=312-
1ryy	.
.	.
.	.
.	.
.	.
.	.
.	.
=313-	=313-
1ryy	.
.	.
.	.
.	.
.	.
.	.
.	.
.	.
.	.
.	.
=314-	=314-
1ryy	.
.	.
.	.
.	.
.	.
.	.
.	.
.	.
.	.
.	.
.	.
.	.
.	.
=315-	=315-
1ryy	.
.	.
.	.
.	.
.	.
.	.
.	.
.	.
.	.
.	.
.	.
.	.
.	.
.	.
=316-	=316-
1ryy	.
.	.
.	.
.	.
.	.
.	.
.	.
.	.
.	.
.	.
.	.
.	.
.	.
.	.
.	.
=317-	=317-
1ryy	.
.	.
.	.
.	.
.	.
.	.
.	.
.	.
.	.
.	.
.	.
.	.
.	.
.	.
.	.
.	.
=318-	=318-
1ryy	.
.	.
.	.
.	.
.	.
.	.
.	.
.	.
.	.
.	.
.	.
.	.
.	.
.	.
.	.
.	.
=319-	=319-
1ryy	.
.	.
.	.
.	.
.	.
.	.
.	.
.	.
.	.
.	.
.	.
.	.
.	.
=320-	=320-
1ryy	.
.	.
.	.
.	.
.	.
.	.
.	.
.	.
.	.
.	.
.	.
.	.
.	.
=321-	=321-
1ryy	.
.	.
.	.
.	.
.	.
.	.
.	.
.	.
.	.
.	.
.	.
.	.
.	.
.	.
=322-	=322-
1ryy	.
.	.
.	.
.	.
.	.
.	.
.	.
.	.
.	.
.	.
.	.
.	.
=323-	=323-
1ryy	.
.	.
.	.
.	.
.	.
.	.
.	.
.	.
.	.
.	.
.	.
.	.
.	.
.	.
=324-	=324-
1ryy	.
.	.
.	.
.	.
.	.
.	.
.	.
.	.
.	.
.	.
.	.
.	.
.	.
.	.
.	.
.	.
=325-	=325-
1ryy	.
.	.
.	.
.	.
.	.
.	.
.	.
.	.
.	.
.	.
.	.
.	.
.	.
.	.
.	.
.	.
=326-	=326-
1ryy	.
.	.
.	.
.	.
.	.
.	.
.	.
.	.
.	.
.	.
.	.
.	.
.	.
.	.
.	.
.	.
=327-	=327-
1ryy	.
.	.
.	.
.	.
.	.
.	.
.	.
.	.
.	.
.	.
.	.
.	.
.	.
.	.
.	.
.	.
=328-	=328-
1ryy	.
.	.
.	.
.	.
.	.
.	.
.	.
.	.
.	.
.	.
.	.
.	.
.	.
.	.
.	.
=329-	=329-
1ryy	.
.	.
.	.
.	.
.	.
.	.
.	.
.	.
.	.
.	.
.	.
.	.
.	.
.	.
=330-	=330-
1ryy	.
.	.
.	.
.	.
.	.
.	.
.	.
.	.
.	.
.	.
.	.
.	.
.	.
.	.
=331-	=331-
1ryy	.
.	.
.	.
.	.
.	.
.	.
.	.
.	.
.	.
.	.
.	.
.	.
.	.
=332-	=332-
1ryy	.
.	.
.	.
.	.
.	.
.	.
.	.
.	.
.	.
.	.
.	.
=333-	=333-
1ryy	.
.	.
.	.
.	.
.	.
.	.
.	.
.	.
.	.
.	.
=334-	=334-
1ryy	.
.	.
.	.
.	.
.	.
.	.
.	.
.	.
.	.
.	.
.	.
=335-	=335-
1ryy	.
.	.
.	.
.	.
.	.
.	.
.	.
.	.
=336-	=336-
1ryy	.
.	.
.	.
.	.
.	.
.	.
.	.
.	.
=337-	=337-
1ryy	.
.	.
.	.
.	.
.	.
.	.
.	.
=338-	=338-
1ryy	.
.	.
.	.
.	.
.	.
.	.
.	.
.	.
.	.
.	.
.	.
=339-	=339-
1ryy	.
.	.
.	.
.	.
.	.
.	.
.	.
.	.
.	.
=340-	=340-
1ryy	.
.	.
.	.
.	.
.	.
.	.
.	.
.	.
=341-	=341-
1ryy	.
.	.
.	.
.	.
.	.
.	.
.	.
.	.
.	.
.	.
=342-	=342-
1ryy	.
.	.
.	.
.	.
.	.
.	.
=343-	=343-
1ryy	.
.	.
.	.
.	.
.	.
.	.
.	.
.	.
.	.
=344-	=344-
1ryy	.
.	.
.	.
.	.
.	.
.	.
.	.
.	.
=345-	=345-
1ryy	.
.	.
.	.
.	.
.	.
.	.
.	.
.	.
=346-	=346-
1ryy	.
.	.
.	.
.	.
.	.
.	.
.	.
.	.
=347-	=347-
1ryy	.
.	.
.	.
.	.
.	.
.	.
.	.
.	.
.	.
.	.
.	.
=348-	=348-
1ryy	.
.	.
.	.
.	.
.	.
.	.
.	.
.	.
.	.
=349-	=349-
1ryy	.
.	.
.	.
.	.
.	.
.	.
=350-	=350-
1ryy	.
.	.
.	.
.	.
.	.
.	.
.	.
.	.
=351-	=351-
1ryy	.
.	.
.	.
.	.
.	.
.	.
.	.
.	.
.	.
.	.
=352-	=352-
1ryy	.
.	.
.	.
.	.
.	.
.	.
.	.
.	.
=353-	=353-
1ryy	.
.	.
.	.
.	.
.	.
.	.
.	.
=354-	=354-
1ryy	.
.	.
.	.
.	.
.	.
.	.
.	.
=355-	=355-
1ryy	.
.	.
.	.
.	.
.	.
.	.
.	.
.	.
=356-	=356-
1ryy	.
.	.
.	.
.	.
.	.
.	.
.	.
.	.
=357-	=357-
1ryy	.
.	.
.	.
.	.
.	.
.	.
.	.
.	.
.	.
=358-	=358-
1ryy	.
.	.
.	.
.	.
.	.
.	.
=359-	=359-
1ryy	.
.	.
.	.
.	.
.	.
.	.
.	.
=360-	=360-
1ryy	.
.	.
.	.
.	.
.	.
.	.
.	.
.	.
=361-	=361-
1ryy	.
.	.
.	.
.	.
.	.
.	.
.	.
.	.
=362-	=362-
1ryy	.
.	.
.	.
.	.
.	.
.	.
.	.
.	.
=363-	=363-
1ryy	.
.	.
.	.
.	.
=364-	=364-
1ryy	.
=365-	=365-
1ryy	.
=366-	=366-
1ryy	.
=367-	=367-
1ryy	.
=368-	=368-
1ryy	.
=369-	=369-
1ryy	.
==	==
*-	*-
!!!hum2abc: -p "%%nostems" -M none
!!!RWG: Rhythms and barlines are for alignment only, not found in source.
!!!YEC: Copyright 2009, Elsa De Luca
!!!title: @{OTL}, @{SMS}
